X: 1388
T: Muntazır Teşrîfine Hâzır Kayık
C: Hacı Ârif Bey
O: Turkey
F: http://compmusic.upf.edu/node/140
N: kurdilihicazkar--sarki--aksak--muntazir_tesrifine--haci_arif_bey
N: makam= kurdilihicazkar
N: form= sarki
N: usul= aksak = 9/8
M: 9/8
L: 1/16
K: C _B _e _A 
Q: 1/4=228
%%MIDI tuningsystem comma53
G3_2/4A B2c2 d2_2/4e2 f2e2 f2 | g8{_2/4a}g2 f2_2/4e3dc2  | \
w:  ARANAĞME  |   | 
c3_2/4a g2a2 f2_2/4e2 gfe2 ed | 
w:   | 
d6 c2B2 c2d4z2  | c3d _2/4e2f2 g2f2 a2g2 f2 | \
w:   |   | 
e3dd3cc2 {e}dcc4z2  | 
w:   | 
B3d c2d2 B2A2 cBA2 AG | G3edc cBBA AGG4z2  | 
w:   |   | 
G3_2/4A B2c2 d2_2/4e2 f2e2 f2 | g8{_2/4a}g2 f2_2/4e3dc2  | \
w:  ARANAĞME  |   | 
c3_2/4a g2a2 f2_2/4e2 gfe2 ed | 
w:   | 
d6 c2B2 c2d4z2  | c3d _2/4e2f2 g2f2 a2g2 f2 | \
w:   |   | 
e3dd3cc2 {e}dcc4z2  | 
w:   | 
B3d c2d2 B2A2 cBA2 AG | G6 f2_2/4e2 f2g6  | \
w:   |   | 
z2c4g2 f4 g6 | 
w:  Mun ta zır  teş  | 
g2 _2/4a2b2 a2g2 {a}f2_2/4e2 edc2  | \
w:  rî *  fi *  ne  *  *  hâ  | 
c2d2 _2/4e2f2 e2d2 e4 f2 | g8{_2/4a}g2 f2_7/8e3dc2  | 
w:  zır  *  *  *  *  *  *  ka  |  yık   | 
c2d2 _2/4e2f2 e2d2 e4 f2 | g6 .f.e.d.c .B.AG6  | \
w:  hâ *  *  *  *  *  zır  ka  |  yık   SAZ  | 
z2c4g2 f4 g6 | 
w:  Mun ta zır  teş  | 
g2 _2/4a2b2 a2g2 {a}f2_2/4e2 edc2  | \
w:  rî *  fi *  ne  *  *  hâ  | 
c2d2 _2/4e2f2 e2d2 e4 f2 | g8{_2/4a}g2 f2_7/8e3dc2  | 
w:  zır  *  *  *  *  *  *  ka  |  yık   | 
c2d2 _2/4e2f2 e2d2 e4 f2 | g6 f2_2/4ed efga bgaf  | \
w:  hâ *  *  *  *  *  zır  ka  |  yık   SAZ  | 
g2g4_3/4a2 b2a2 g2{_a}g2 f2 | 
w:  *  İn ce  yaş *  mak  | 
f3ag2 f2e2 ede6  | d2e2 f2d2 e2f2 g2f2 e2 | \
w:  la  *  bu  *  Cu *  *  ma   |  sey *  *  *  *  *  *  *  re   | 
ed efd2 {e}c2c3/2e/ dcB2 c2d2  | 
w:  çık   | 
B2c4B2 B2_3/4A2 cB_A2 AG | G6 f2_2/4ed efga bgaf  | 
w:  sey *  *  *  *  *  *  *  *  re   |  çık   SAZ  | 
g2g4_3/4a2 b2a2 g2{_a}g2 f2 | f3ag2 f2e2 ede6  | \
w:  *  İn ce  yaş *  mak  |  la  *  bu  *  Cu *  *  ma   | 
d2e2 f2d2 e2f2 g2f2 e2 | 
w:  sey *  *  *  *  *  *  *  re   | 
ed efd2 {e}c2c3/2e/ dcB2 c2d2  | B2c4B2 B2_3/4A2 cB_A2 AG | 
w:  çık   |  sey *  *  *  *  *  *  *  *  re   | 
G6 c2B2 d2c6  | z2F4c2 B4 c4 B2 | _2/4A4B4{c}B_3/4A2GG6  | \
w:  çık   SAZ  |  Pen be  man tin  |  den  fe *  râ *  *  ce   | 
G3_2/4A B2c2 d2_2/4e2 f2e2 f2 | 
w:  pek  *  *  *  *  *  *  *  de   | 
g8{a}g2 f2_7/8e3dc2  | c2d2 _2/4e2f2 e2d2 e4 f2 | \
w:  şık   |  pek  *  *  *  *  *  *  de   | 
g6 f2_2/4ed efga bgaf  | 
w:  şık   SAZ  | 
g2g4_3/4a2 b2a2 g2{_a}g2 f2 | f3ag2 f2e2 ede6  | \
w:  *  İn ce  yaş *  mak  |  la  *  bu  *  Cu *  *  ma   | 
d2e2 f2d2 e2f2 g2f2 e2 | 
w:  sey *  *  *  *  *  *  *  re   | 
ed efd2 {e}c2c3/2e/ dcB2 c2d2  | B2c4B2 B2_3/4A2 cB_A2 AG | 
w:  çık   |  sey *  *  *  *  *  *  *  *  re   | 
G6 f2_2/4ed efga bgaf  | g2g4_3/4a2 b2a2 g2{_a}g2 f2 | \
w:  çık   SAZ  |  *  İn ce  yaş *  mak  | 
f3ag2 f2e2 ede6  | 
w:  la  *  bu  *  Cu *  *  ma   | 
d2e2 f2d2 e2f2 g2f2 e2 | ed efd2 {e}c2c3/2e/ dcB2 c2d2  | 
w:  sey *  *  *  *  *  *  *  re   |  çık   | 
B2c4B2 B2_3/4A2 cB_A2 AG | G6 |
w:  sey *  *  *  *  *  *  *  *  re   |  çık    | 


